dist/img/timer.svg

<svg width="114" height="187" viewBox="0 0 114 187" fill="none" xmlns="http://www.w3.org/2000/svg">
<path d="M111.182 25.2033L112.637 18.6918C113.039 16.8915 96.7179 11.6876 76.1826 7.06597C55.6473 2.4443 38.6834 0.160335 38.2816 1.95168L36.8263 8.46322" fill="#EFEEEC"/>
<path d="M112.494 25.4989L109.878 24.9078L111.218 18.9157C109.039 17.2945 96.2269 12.9595 75.8969 8.38261C55.5581 3.80572 42.1387 2.23829 39.4691 2.76674L38.1299 8.75879L35.5138 8.16764L36.9692 1.66506C37.2906 0.223027 38.4423 -0.762213 49.8618 0.778344C57.058 1.74567 66.5132 3.5191 76.4773 5.76724C86.4414 8.00642 95.7447 10.4606 102.664 12.6729C113.637 16.175 114.262 17.5543 113.941 18.9963L112.494 25.4989Z" fill="black"/>
<path d="M111.179 25.203C111.581 23.4076 95.2599 18.2056 74.7258 13.5841C54.1916 8.96263 37.2199 6.67165 36.8183 8.46709C36.4168 10.2625 52.7375 15.4645 73.2717 20.086C93.8058 24.7075 110.778 26.9985 111.179 25.203Z" fill="black"/>
<path d="M108.343 27.1649C106.45 27.1649 103.682 26.941 99.6018 26.3856C92.4055 25.4183 82.9504 23.6449 72.9863 21.3967C63.0133 19.1486 53.7188 16.7034 46.7993 14.4911C35.8174 10.998 35.1924 9.60969 35.5228 8.16765C35.8442 6.72562 36.9959 5.74038 48.4154 7.28094C55.6116 8.24826 65.0668 10.0217 75.0309 12.2698C84.995 14.509 94.2983 16.9632 101.218 19.1755C112.191 22.6776 112.816 24.0569 112.494 25.4989C112.289 26.4215 111.735 27.1649 108.343 27.1649ZM40.0227 9.17976C44.5851 11.2129 56.3973 14.9031 73.5756 18.7724C90.7538 22.6417 103.004 24.3614 107.994 24.4779C103.432 22.4447 91.6198 18.7545 74.4416 14.8852C57.2634 11.0249 45.0136 9.30516 40.0227 9.17976Z" fill="black"/>
<path d="M61.4508 94.0985L84.6468 79.3557C100.504 69.2794 105.209 48.2221 95.1644 32.315C85.1289 16.4078 64.1293 11.6876 48.2814 21.755C32.4246 31.8313 27.7104 52.8975 37.7549 68.7957L52.451 92.0743L29.2461 106.817C13.3893 116.893 8.68403 137.951 18.7285 153.858C28.7729 169.765 49.7635 174.485 65.6204 164.409C81.4772 154.332 86.1824 133.275 76.138 117.368L61.4508 94.0985Z" fill="#EFEEEC"/>
<path d="M47.4957 171.037C35.7817 171.037 24.3176 165.215 17.6035 154.574C7.18406 138.067 12.0857 116.132 28.5408 105.68L50.6117 91.6533L36.621 69.5212C31.5764 61.5229 29.9336 52.0377 31.996 42.8033C34.0585 33.5689 39.5852 25.696 47.5582 20.6265C55.5313 15.557 64.9864 13.9089 74.1916 15.9869C83.3968 18.0559 91.2448 23.6001 96.2983 31.5984C101.343 39.5968 102.986 49.082 100.923 58.3164C98.8608 67.5508 93.3341 75.4237 85.361 80.4932L63.2901 94.5195L77.2719 116.66C82.3164 124.659 83.9682 134.144 81.8968 143.378C79.8344 152.613 74.3077 160.486 66.3346 165.555C60.4865 169.263 53.951 171.037 47.4957 171.037ZM66.3971 17.7961C60.2812 17.7961 54.2813 19.5248 48.9957 22.8925C41.6298 27.5769 36.5227 34.8497 34.6121 43.3855C32.7014 51.9213 34.2192 60.6899 38.8888 68.0792L54.2992 92.4863L29.9693 107.946C14.7643 117.61 10.2286 137.879 19.8624 153.132C29.4961 168.386 49.701 172.936 64.9061 163.271C80.1111 153.607 84.6468 133.338 75.013 118.085L59.6026 93.6775L83.9325 78.2182C99.1375 68.5539 103.673 48.2848 94.0394 33.0315C89.3699 25.6422 82.12 20.519 73.6113 18.6022C71.2095 18.0648 68.7989 17.7961 66.3971 17.7961Z" fill="black"/>
<path d="M35.5105 8.16905L1.5874 159.939L4.2011 160.527L38.1242 8.75697L35.5105 8.16905Z" fill="black"/>
<path d="M109.862 24.9001L75.9547 176.67L78.5684 177.257L112.476 25.4877L109.862 24.9001Z" fill="black"/>
<path d="M75.7184 183.755L77.1737 177.244C77.5755 175.443 61.2544 170.24 40.7191 165.618C20.1838 160.996 3.21092 158.703 2.80914 160.504L1.35382 167.015" fill="#EFEEEC"/>
<path d="M77.0308 184.051L74.4148 183.46L75.7541 177.468C73.5756 175.847 60.7722 171.511 40.4334 166.935C20.0945 162.358 6.67514 160.79 4.01448 161.319L2.67522 167.311L0.0592003 166.72L1.51453 160.208C1.83595 158.766 2.98771 157.781 14.4071 159.321C21.6034 160.289 31.0586 162.062 41.0226 164.31C50.9867 166.558 60.2901 169.004 67.2096 171.216C78.1826 174.718 78.8076 176.097 78.4862 177.539L77.0308 184.051Z" fill="black"/>
<path d="M75.7173 183.749C76.1188 181.954 59.7981 176.752 39.264 172.13C18.7298 167.509 1.75806 165.218 1.35652 167.013C0.954988 168.809 17.2757 174.011 37.8099 178.632C58.344 183.254 75.3157 185.545 75.7173 183.749Z" fill="#EFEEEC"/>
<path d="M72.8702 185.717C70.9774 185.717 68.2185 185.493 64.1382 184.938C56.942 183.97 47.4868 182.197 37.5227 179.949C27.5586 177.71 18.2553 175.255 11.3358 173.043C0.362767 169.541 -0.262221 168.162 0.0592012 166.72C0.380623 165.278 1.54131 164.292 12.9518 165.833C20.1481 166.8 29.6032 168.574 39.5673 170.822C49.5314 173.07 58.8348 175.515 65.7543 177.727C76.7273 181.23 77.3523 182.609 77.0308 184.051C76.8166 184.973 76.2719 185.717 72.8702 185.717ZM4.55911 167.732C9.12152 169.765 20.9338 173.455 38.112 177.324C55.2902 181.194 67.54 182.913 72.5309 183.03C67.9685 180.997 56.1563 177.306 38.978 173.437C21.7998 169.568 9.55008 167.857 4.55911 167.732Z" fill="black"/>
<path d="M36.2638 64.8817C40.7012 62.1588 46.4154 63.2963 51.3617 64.9175C59.0848 67.4433 66.5043 70.9454 74.397 72.889C79.1201 74.0533 84.5039 75.5043 89.3699 75.5133C80.0219 81.4068 70.6738 87.3003 61.3258 93.1939C60.7455 93.5611 60.1651 93.9283 59.5133 94.1343C57.9598 94.6449 56.2098 94.1881 54.8438 93.2745C53.4778 92.3609 52.4331 91.0622 51.4689 89.7366C49.3261 86.8077 47.4422 83.6908 45.5583 80.5828C42.7815 75.988 39.9959 71.3932 37.2192 66.8073" fill="black"/>
<path d="M13.9696 127.176C17.3624 125.25 21.5766 125.519 25.3712 126.45C29.1657 127.382 32.8175 128.913 36.6924 129.37C39.1655 129.657 41.6655 129.495 44.1476 129.334C47.835 129.092 51.5224 128.86 55.2009 128.627C57.8884 128.457 60.5937 128.286 63.2543 128.663C65.8525 129.039 68.3703 129.934 70.9774 130.158C72.8613 130.32 74.772 130.131 76.6201 130.481C78.4772 130.839 80.3611 131.914 80.9504 133.714C81.2361 134.601 81.1825 135.55 81.129 136.482C80.8254 141.515 80.0754 146.612 77.5487 150.974C75.4148 154.673 72.3524 159.402 70.0399 159.904C68.6114 160.208 68.0578 161.381 66.906 162.295C66.0846 162.949 65.1114 163.37 64.165 163.818C59.7812 165.922 55.9509 168.278 51.4242 168.189C48.9511 168.135 46.3172 166.827 43.9333 166.182C38.6566 164.749 33.371 163.316 28.0943 161.883C26.1301 161.346 24.1034 160.79 22.5141 159.509C21.3088 158.542 20.4338 157.234 19.657 155.9C14.7643 147.606 12.6661 137.682 13.7821 128.098" fill="black"/>
<path d="M58.2901 93.0864H55.6116V130.024H58.2901V93.0864Z" fill="black"/>
<path d="M51.4599 89.7366C51.4599 89.7366 56.942 95.9078 56.942 102.903C56.942 102.903 56.942 95.5853 65.2097 91.6981" fill="black"/>
<path d="M58.2902 102.912L55.6116 102.903C55.6116 96.5168 50.5135 90.686 50.46 90.6233L52.4599 88.8319C52.6296 89.029 55.6384 92.4505 57.2634 97.1617C58.5223 94.8598 60.7455 92.3161 64.6472 90.48L65.7811 92.9162C58.4419 96.3735 58.2902 102.643 58.2902 102.912Z" fill="black"/>
</svg>

<svg width="114" height="187" fill="none" xmlns="http://www.w3.org/2000/svg"><path d="M111.182 25.203l1.455-6.511c.402-1.8-15.92-7.004-36.454-11.626C55.647 2.444 38.683.16 38.282 1.952l-1.456 6.511" fill="#EFEEEC"/><path d="M112.494 25.499l-2.616-.591 1.34-5.992c-2.179-1.622-14.991-5.957-35.321-10.533-20.339-4.577-33.758-6.145-36.428-5.616l-1.34 5.992-2.615-.591 1.455-6.503C37.291.223 38.442-.762 49.862.778c7.196.968 16.651 2.741 26.615 4.99 9.964 2.238 19.268 4.693 26.187 6.905 10.973 3.502 11.598 4.881 11.277 6.323l-1.447 6.503z" fill="#000"/><path d="M111.179 25.203c.402-1.795-15.92-6.997-36.453-11.619C54.192 8.963 37.22 6.672 36.818 8.467c-.401 1.795 15.92 6.997 36.454 11.619s37.506 6.913 37.907 5.117z" fill="#000"/><path d="M108.343 27.165c-1.893 0-4.661-.224-8.741-.78-7.197-.967-16.652-2.74-26.616-4.988-9.973-2.248-19.267-4.694-26.187-6.906-10.982-3.493-11.607-4.881-11.276-6.323.321-1.442 1.473-2.428 12.892-.887 7.197.967 16.652 2.74 26.616 4.989 9.964 2.239 19.267 4.693 26.187 6.905 10.973 3.503 11.598 4.882 11.276 6.324-.205.923-.759 1.666-4.151 1.666zM40.023 9.18c4.562 2.033 16.374 5.723 33.553 9.592 17.178 3.87 29.428 5.59 34.418 5.706-4.562-2.033-16.374-5.724-33.552-9.593-17.179-3.86-29.428-5.58-34.42-5.705z" fill="#000"/><path d="M61.45 94.099l23.197-14.743c15.857-10.077 20.562-31.134 10.517-47.041C85.13 16.408 64.13 11.688 48.281 21.755c-15.856 10.076-20.57 31.143-10.526 47.04l14.696 23.28-23.205 14.742C13.39 116.893 8.684 137.951 18.73 153.858c10.044 15.907 31.035 20.627 46.891 10.551 15.857-10.077 20.562-31.134 10.518-47.041l-14.687-23.27z" fill="#EFEEEC"/><path d="M47.496 171.037c-11.714 0-23.178-5.822-29.893-16.463-10.419-16.507-5.517-38.442 10.938-48.894l22.07-14.027-13.99-22.132c-5.045-7.998-6.687-17.483-4.625-26.718 2.063-9.234 7.59-17.107 15.562-22.176 7.973-5.07 17.428-6.718 26.634-4.64 9.205 2.069 17.053 7.613 22.106 15.611 5.045 7.999 6.688 17.484 4.625 26.718-2.062 9.235-7.589 17.108-15.562 22.177L63.291 94.52l13.98 22.141c5.045 7.999 6.697 17.484 4.626 26.718-2.063 9.235-7.59 17.108-15.562 22.177a35.092 35.092 0 01-18.84 5.482zm18.901-153.24c-6.116 0-12.116 1.728-17.401 5.095-7.366 4.685-12.473 11.958-14.384 20.494-1.91 8.535-.393 17.304 4.277 24.693l15.41 24.407-24.33 15.46c-15.205 9.664-19.74 29.933-10.107 45.186 9.634 15.254 29.839 19.804 45.044 10.139 15.205-9.664 19.74-29.933 10.107-45.186l-15.41-24.407 24.33-15.46c15.204-9.664 19.74-29.933 10.106-45.187-4.67-7.389-11.919-12.512-20.428-14.429a32.987 32.987 0 00-7.214-.806z" fill="#000"/><path d="M35.51 8.17L1.587 159.938l2.614.588L38.124 8.757l-2.614-.588zm74.352 16.73L75.955 176.67l2.613.587 33.908-151.77-2.614-.587z" fill="#000"/><path d="M75.718 183.755l1.456-6.511c.401-1.801-15.92-7.004-36.455-11.626-20.535-4.622-37.508-6.915-37.91-5.114l-1.455 6.511" fill="#EFEEEC"/><path d="M77.03 184.051l-2.615-.591 1.34-5.992c-2.18-1.621-14.983-5.957-35.322-10.533-20.338-4.577-33.758-6.145-36.419-5.616l-1.339 5.992-2.616-.591 1.456-6.512c.321-1.442 1.473-2.427 12.892-.887 7.196.968 16.652 2.741 26.616 4.989 9.964 2.248 19.267 4.694 26.187 6.906 10.973 3.502 11.598 4.881 11.276 6.323l-1.455 6.512z" fill="#000"/><path d="M75.717 183.749c.402-1.795-15.919-6.997-36.453-11.619-20.534-4.621-37.506-6.912-37.907-5.117-.402 1.796 15.919 6.998 36.453 11.619 20.534 4.622 37.506 6.913 37.907 5.117z" fill="#EFEEEC"/><path d="M72.87 185.717c-1.893 0-4.651-.224-8.732-.779-7.196-.968-16.651-2.741-26.615-4.989-9.964-2.239-19.268-4.694-26.187-6.906C.363 169.541-.262 168.162.059 166.72c.322-1.442 1.482-2.428 12.893-.887 7.196.967 16.651 2.741 26.615 4.989 9.964 2.248 19.268 4.693 26.187 6.905 10.973 3.503 11.598 4.882 11.277 6.324-.214.922-.76 1.666-4.16 1.666zM4.56 167.732c4.562 2.033 16.374 5.723 33.552 9.592 17.178 3.87 29.428 5.589 34.419 5.706-4.563-2.033-16.375-5.724-33.553-9.593-17.178-3.869-29.428-5.58-34.419-5.705zm31.704-102.85c4.437-2.723 10.151-1.586 15.098.035 7.723 2.526 15.142 6.028 23.035 7.972 4.723 1.164 10.107 2.615 14.973 2.624l-28.044 17.68c-.58.368-1.16.735-1.813.941-1.553.51-3.303.054-4.67-.86-1.365-.913-2.41-2.212-3.374-3.537-2.143-2.93-4.027-6.046-5.91-9.154-2.777-4.595-5.563-9.19-8.34-13.776M13.97 127.176c3.392-1.926 7.607-1.657 11.401-.726 3.795.932 7.447 2.463 11.321 2.92 2.474.287 4.974.125 7.456-.036 3.687-.242 7.374-.474 11.053-.707 2.687-.17 5.393-.341 8.053.036 2.599.376 5.116 1.271 7.723 1.495 1.884.162 3.795-.027 5.643.323 1.857.358 3.741 1.433 4.33 3.233.286.887.233 1.836.179 2.768-.304 5.033-1.054 10.13-3.58 14.492-2.134 3.699-5.197 8.428-7.51 8.93-1.428.304-1.981 1.477-3.133 2.391-.821.654-1.795 1.075-2.741 1.523-4.384 2.104-8.214 4.46-12.74 4.371-2.474-.054-5.108-1.362-7.492-2.007l-15.839-4.299c-1.964-.537-3.99-1.093-5.58-2.374-1.205-.967-2.08-2.275-2.857-3.609-4.893-8.294-6.99-18.218-5.875-27.802" fill="#000"/><path d="M58.29 93.086h-2.678v36.938h2.678V93.086z" fill="#000"/><path d="M51.46 89.737s5.482 6.17 5.482 13.166c0 0 0-7.318 8.268-11.205" fill="#000"/><path d="M58.29 102.912l-2.678-.009c0-6.386-5.099-12.217-5.152-12.28l2-1.791c.17.197 3.178 3.619 4.803 8.33 1.26-2.302 3.483-4.846 7.384-6.682l1.134 2.436c-7.34 3.458-7.49 9.727-7.49 9.996z" fill="#000"/></svg>
